src/main/resources/icons/DatabaseIcons/icons/procGroup@2x.svg

<svg xmlns="http://www.w3.org/2000/svg" width="16" height="16" viewBox="0 0 16 16">
  <g fill="none" fill-rule="evenodd">
    <path fill="#F98B9E" fill-opacity=".6" d="M16,11.5 C16,13.9852857 13.9852857,16 11.5,16 C9.01471429,16 7,13.9852857 7,11.5 C7,9.01471429 9.01471429,7 11.5,7 C13.9852857,7 16,9.01471429 16,11.5"/>
    <path fill="#231F20" fill-opacity=".7" d="M12.50318,10.75 C12.50318,10 11.9592021,10.0189183 11.499625,9.99983333 C11.4363408,9.99720531 11.2696741,9.99720531 10.999625,9.99983333 L10.999625,11.499833 C11.26298,11.504168 11.4296467,11.504168 11.499625,11.499833 C11.9333218,11.4729663 12.50318,11.5 12.50318,10.75 Z M10,9 L11.374,9 C12.37525,9 13.5,9.11328125 13.5,10.75 C13.5,12.3867188 12.229,12.499833 11.28775,12.499833 L10.999625,12.499833 L10.999625,14 L10,14 L10,9 Z"/>
    <path fill="#9AA7B0" fill-opacity=".8" d="M10,4 L7.984,4 L6.696,2.711 C6.222,2.285 5.615,2.035 4.979,2 L1.051,2 C1.023,2 1,2.023 1,2.051 L1,13 L6.219,13 C6.082,12.522 6,12.021 6,11.5 C6,8.463 8.463,6 11.5,6 C12.83,6 14.049,6.473 15,7.258 L15,6.006 L15,6 L15,4 L10,4 Z"/>
  </g>
</svg>

<svg xmlns="http://www.w3.org/2000/svg" width="16" height="16" viewBox="0 0 16 16"><rect id="frame" width="16" height="16" fill="none"/><g fill="none" fill-rule="evenodd"><path fill="#F98B9E" fill-opacity=".6" d="M16 11.5a4.5 4.5 0 1 1-9 0 4.5 4.5 0 0 1 9 0"/><path fill="#231F20" fill-opacity=".7" d="M12.503 10.75c0-.75-.544-.731-1.003-.75a14.33 14.33 0 0 0-.5 0v1.5c.263.004.43.004.5 0 .433-.027 1.003 0 1.003-.75zM10 9h1.374c1.001 0 2.126.113 2.126 1.75s-1.271 1.75-2.212 1.75H11V14h-1V9z"/><path fill="#9AA7B0" fill-opacity=".8" d="M10 4H7.984L6.696 2.711A2.8 2.8 0 0 0 4.979 2H1.051A.051.051 0 0 0 1 2.051V13h5.219A5.429 5.429 0 0 1 6 11.5a5.5 5.5 0 0 1 9-4.242V4h-5z"/></g></svg>
